X: 18818
T: Ijswals
R: waltz
M: 3/4
K: Dminor
de|f2 f2 g2|a2 ga b2|a2 gabg|_agfede|
f2 f2 g2|a2 ga b2|a2 gabg|a4:|
|:d2|e2 e2 f2|g2 f2 e2|a2 gfed|^c2 A2 d2|
e2 efge|f2 d2 a2|g2 fed^c|d4:|
|:D2|A4 E2|F2 D2 A2|d2 defg|ed^c=B A2|
d2 A2 E2|F2 ED A2|d2 defg|e4:|
e2|:a2 a2 e2|f2 ef d2|g2 gabg|a4 A2|
A2 d4|^c2 a2 e2|f2 gfef|1 d^cdefg:|2 d6||

